X:1145
T:Quick Step
A:Wyresdale, Lancashire
B:E and J Winder, 1835-41
L:1/8
M:6/8
O:England
Z:Richard Robinson 
%%TUNEURL: http://www.leeds.ac.uk/music/Info/RRTuneBk/gettune/00001157.html
%%ID:00001157
K:C
G | \
BcB Bcd | edd d2g | edd dcB | ABA AGA | \
BcB Bcd | edd d2e | def gaf | ggg g2 ::
g | \
bag fga | gdB gdB | cde dBG | ABA AGA | \
BcB Bcd | edd d2e | def gaf | g2a g2 ::
